dist/svg/shoe-fill.svg

<svg xmlns="http://www.w3.org/2000/svg" viewBox="0 0 24 24"><path d="M13.706 3.602c-.058.046-.243.336-.412.645a10 10 0 0 1-.371.639c-.035.042-.332.225-.66.406-.329.181-.632.376-.675.435a.52.52 0 0 0 0 .546c.043.059.351.26.684.447s.62.354.637.372c.017.017.184.304.371.637s.388.64.447.683a.52.52 0 0 0 .546 0c.059-.043.26-.351.447-.684s.354-.62.371-.637.304-.184.637-.371.641-.388.684-.447a.52.52 0 0 0 .001-.546c-.045-.061-.349-.254-.702-.447l-.623-.34-.346-.629c-.19-.346-.393-.665-.45-.71-.141-.111-.444-.111-.586.001m.474 1.768c.148.265.185.302.45.45.159.088.288.169.288.18s-.129.092-.288.18c-.265.148-.302.185-.45.45-.088.159-.169.288-.18.288s-.092-.129-.18-.288c-.148-.265-.185-.302-.45-.45-.159-.088-.288-.169-.288-.18s.129-.092.288-.18c.265-.148.302-.185.45-.45.088-.159.169-.288.18-.288s.092.129.18.288m4.526 1.232c-.058.046-.243.336-.412.645a10 10 0 0 1-.371.639c-.035.042-.332.225-.66.406-.329.181-.632.376-.675.435a.52.52 0 0 0 0 .546c.043.059.351.26.684.447s.62.354.637.371.184.304.371.637.388.641.447.684a.5.5 0 0 0 .273.079c.102 0 .207-.03.273-.079.059-.043.26-.351.447-.684s.354-.62.371-.637.304-.184.637-.371.641-.388.684-.447a.52.52 0 0 0 .001-.546c-.045-.061-.349-.254-.702-.447l-.623-.34-.346-.629c-.19-.346-.393-.665-.45-.71-.141-.111-.444-.111-.586.001m.474 1.768c.148.265.185.302.45.45.159.088.288.169.288.18s-.129.092-.288.18c-.265.148-.302.185-.45.45-.088.159-.169.288-.18.288s-.092-.129-.18-.288c-.148-.265-.185-.302-.45-.45-.159-.088-.288-.169-.288-.18s.129-.092.288-.18c.265-.148.302-.185.45-.45.088-.159.169-.288.18-.288s.092.129.18.288m-15.36.907a.73.73 0 0 0-.538.514c-.06.215-.057 10.213.003 10.428.056.204.292.44.496.496.213.06 5.216.062 5.428.003a.83.83 0 0 0 .439-.332 1.3 1.3 0 0 0 .089-.268l.043-.182.7.151c2.288.494 2.757.571 3.86.632a13.5 13.5 0 0 0 4.08-.419c.52-.135 1.747-.541 1.945-.643a.8.8 0 0 0 .353-.448c.054-.193.054-2.236.001-2.709a4.77 4.77 0 0 0-3.563-4.101c-.461-.118-1.091-.158-2.486-.159h-1.269l-.918-1.375c-.549-.823-.968-1.411-1.043-1.465-.243-.173-.392-.177-.994-.024-1.118.284-1.92.39-2.946.39-1.025 0-1.832-.106-2.94-.388a7 7 0 0 0-.58-.134 2 2 0 0 0-.16.033m6.357 4.001a.739.739 0 0 1 .348 1.246.84.84 0 0 1-.306.191c-.218.061-3.22.061-3.438 0-.212-.058-.441-.293-.5-.511-.109-.405.133-.832.524-.924.189-.045 3.18-.046 3.372-.002m9.055 4.848-.012.367-.34.115a12.3 12.3 0 0 1-4.22.618c-1.162-.035-1.306-.058-3.947-.625-1.863-.399-1.848-.398-2.155-.191-.186.126-.282.309-.307.59l-.022.24H4.76v-1.48h14.483z" fill-rule="evenodd"/></svg>

<svg fill="none" xmlns="http://www.w3.org/2000/svg" viewBox="0 0 24 24"><path d="M13.706 3.602 C 13.648 3.648,13.463 3.938,13.294 4.247 C 13.124 4.556,12.958 4.843,12.923 4.886 C 12.888 4.928,12.591 5.111,12.263 5.292 C 11.934 5.473,11.631 5.668,11.588 5.727 C 11.484 5.868,11.484 6.132,11.588 6.273 C 11.631 6.332,11.939 6.533,12.272 6.720 C 12.605 6.907,12.892 7.074,12.909 7.092 C 12.926 7.109,13.093 7.396,13.280 7.729 C 13.467 8.062,13.668 8.369,13.727 8.412 C 13.868 8.516,14.132 8.516,14.273 8.412 C 14.332 8.369,14.533 8.061,14.720 7.728 C 14.907 7.395,15.074 7.108,15.091 7.091 C 15.108 7.074,15.395 6.907,15.728 6.720 C 16.061 6.533,16.369 6.332,16.412 6.273 C 16.516 6.132,16.516 5.868,16.413 5.727 C 16.368 5.666,16.064 5.473,15.711 5.280 L 15.088 4.940 14.742 4.311 C 14.552 3.965,14.349 3.646,14.292 3.601 C 14.151 3.490,13.848 3.490,13.706 3.602 M14.180 5.370 C 14.328 5.635,14.365 5.672,14.630 5.820 C 14.789 5.908,14.918 5.989,14.918 6.000 C 14.918 6.011,14.789 6.092,14.630 6.180 C 14.365 6.328,14.328 6.365,14.180 6.630 C 14.092 6.789,14.011 6.918,14.000 6.918 C 13.989 6.918,13.908 6.789,13.820 6.630 C 13.672 6.365,13.635 6.328,13.370 6.180 C 13.211 6.092,13.082 6.011,13.082 6.000 C 13.082 5.989,13.211 5.908,13.370 5.820 C 13.635 5.672,13.672 5.635,13.820 5.370 C 13.908 5.211,13.989 5.082,14.000 5.082 C 14.011 5.082,14.092 5.211,14.180 5.370 M18.706 6.602 C 18.648 6.648,18.463 6.938,18.294 7.247 C 18.124 7.556,17.958 7.843,17.923 7.886 C 17.888 7.928,17.591 8.111,17.263 8.292 C 16.934 8.473,16.631 8.668,16.588 8.727 C 16.484 8.868,16.484 9.132,16.588 9.273 C 16.631 9.332,16.939 9.533,17.272 9.720 C 17.605 9.907,17.892 10.074,17.909 10.091 C 17.926 10.108,18.093 10.395,18.280 10.728 C 18.467 11.061,18.668 11.369,18.727 11.412 C 18.793 11.461,18.898 11.491,19.000 11.491 C 19.102 11.491,19.207 11.461,19.273 11.412 C 19.332 11.369,19.533 11.061,19.720 10.728 C 19.907 10.395,20.074 10.108,20.091 10.091 C 20.108 10.074,20.395 9.907,20.728 9.720 C 21.061 9.533,21.369 9.332,21.412 9.273 C 21.516 9.132,21.516 8.868,21.413 8.727 C 21.368 8.666,21.064 8.473,20.711 8.280 L 20.088 7.940 19.742 7.311 C 19.552 6.965,19.349 6.646,19.292 6.601 C 19.151 6.490,18.848 6.490,18.706 6.602 M19.180 8.370 C 19.328 8.635,19.365 8.672,19.630 8.820 C 19.789 8.908,19.918 8.989,19.918 9.000 C 19.918 9.011,19.789 9.092,19.630 9.180 C 19.365 9.328,19.328 9.365,19.180 9.630 C 19.092 9.789,19.011 9.918,19.000 9.918 C 18.989 9.918,18.908 9.789,18.820 9.630 C 18.672 9.365,18.635 9.328,18.370 9.180 C 18.211 9.092,18.082 9.011,18.082 9.000 C 18.082 8.989,18.211 8.908,18.370 8.820 C 18.635 8.672,18.672 8.635,18.820 8.370 C 18.908 8.211,18.989 8.082,19.000 8.082 C 19.011 8.082,19.092 8.211,19.180 8.370 M3.820 9.277 C 3.555 9.341,3.353 9.534,3.282 9.791 C 3.222 10.006,3.225 20.004,3.285 20.219 C 3.341 20.423,3.577 20.659,3.781 20.715 C 3.994 20.775,8.997 20.777,9.209 20.718 C 9.373 20.673,9.576 20.519,9.648 20.386 C 9.674 20.339,9.714 20.218,9.737 20.118 L 9.780 19.936 10.480 20.087 C 12.768 20.581,13.237 20.658,14.340 20.719 C 15.664 20.793,17.092 20.646,18.420 20.300 C 18.940 20.165,20.167 19.759,20.365 19.657 C 20.514 19.580,20.670 19.383,20.718 19.209 C 20.772 19.016,20.772 16.973,20.719 16.500 C 20.494 14.517,19.084 12.894,17.156 12.399 C 16.695 12.281,16.065 12.241,14.670 12.240 L 13.401 12.240 12.483 10.865 C 11.934 10.042,11.515 9.454,11.440 9.400 C 11.197 9.227,11.048 9.223,10.446 9.376 C 9.328 9.660,8.526 9.766,7.500 9.766 C 6.475 9.766,5.668 9.660,4.560 9.378 C 4.263 9.302,4.002 9.242,3.980 9.244 C 3.958 9.246,3.886 9.261,3.820 9.277 M10.177 13.278 C 10.742 13.409,10.938 14.111,10.525 14.524 C 10.444 14.605,10.307 14.691,10.219 14.715 C 10.001 14.776,6.999 14.776,6.781 14.715 C 6.569 14.657,6.340 14.422,6.281 14.204 C 6.172 13.799,6.414 13.372,6.805 13.280 C 6.994 13.235,9.985 13.234,10.177 13.278 M19.232 18.126 L 19.220 18.493 18.880 18.608 C 17.569 19.051,16.076 19.269,14.660 19.226 C 13.498 19.191,13.354 19.168,10.713 18.601 C 8.850 18.202,8.865 18.203,8.558 18.410 C 8.372 18.536,8.276 18.719,8.251 19.000 L 8.229 19.240 6.494 19.240 L 4.760 19.240 4.760 18.500 L 4.760 17.760 12.002 17.760 L 19.243 17.760 19.232 18.126 " stroke="none" fill-rule="evenodd" fill="currentColor"/></svg>
